src/lib/assets/images/discord.svg

<svg width="40" height="32" viewBox="0 0 40 32" fill="none" xmlns="http://www.w3.org/2000/svg">
<path d="M33.8838 3.38097C31.2558 2.17779 28.4814 1.32421 25.6315 0.842041C25.2415 1.53919 24.8887 2.25646 24.5744 2.99085C21.5387 2.53341 18.4517 2.53341 15.416 2.99085C15.1016 2.25653 14.7487 1.53927 14.3589 0.842041C11.5072 1.32828 8.731 2.18389 6.10032 3.38726C0.87774 11.1142 -0.538019 18.6491 0.169861 26.0772C3.22833 28.3369 6.65164 30.0555 10.291 31.1582C11.1104 30.056 11.8356 28.8868 12.4587 27.6628C11.2752 27.2208 10.1329 26.6755 9.0451 26.0331C9.3314 25.8255 9.6114 25.6115 9.88197 25.4039C13.0473 26.8925 16.5021 27.6643 19.9999 27.6643C23.4978 27.6643 26.9526 26.8925 30.1179 25.4039C30.3916 25.6273 30.6716 25.8412 30.9548 26.0331C29.8648 26.6765 28.7205 27.2229 27.5349 27.666C28.1572 28.8893 28.8824 30.0576 29.7026 31.1582C33.345 30.0599 36.771 28.3421 39.83 26.0803C40.6606 17.4662 38.4111 10.0004 33.8838 3.38097ZM13.3553 21.509C11.3827 21.509 9.75298 19.7188 9.75298 17.5165C9.75298 15.3142 11.326 13.5084 13.349 13.5084C15.372 13.5084 16.9891 15.3142 16.9545 17.5165C16.9199 19.7188 15.3657 21.509 13.3553 21.509ZM26.6446 21.509C24.6688 21.509 23.0454 19.7188 23.0454 17.5165C23.0454 15.3142 24.6185 13.5084 26.6446 13.5084C28.6707 13.5084 30.2752 15.3142 30.2406 17.5165C30.206 19.7188 28.6549 21.509 26.6446 21.509Z" fill="#7289DA"/>
</svg>

<svg xmlns="http://www.w3.org/2000/svg" width="40" height="32" fill="none"><path fill="#7289DA" d="M33.884 3.381A33.08 33.08 0 0 0 25.63.842c-.39.697-.742 1.414-1.057 2.149a30.732 30.732 0 0 0-9.158 0A22.765 22.765 0 0 0 14.359.842 33.314 33.314 0 0 0 6.1 3.387C.878 11.114-.538 18.65.17 26.077a33.265 33.265 0 0 0 10.121 5.081 24.452 24.452 0 0 0 2.168-3.495 21.518 21.518 0 0 1-3.414-1.63c.286-.207.566-.422.837-.63a23.775 23.775 0 0 0 20.236 0c.274.224.554.438.837.63a21.612 21.612 0 0 1-3.42 1.633 24.228 24.228 0 0 0 2.168 3.492A33.114 33.114 0 0 0 39.83 26.08c.83-8.614-1.419-16.08-5.946-22.699ZM13.355 21.509c-1.972 0-3.602-1.79-3.602-3.992 0-2.203 1.573-4.009 3.596-4.009s3.64 1.806 3.605 4.009c-.034 2.202-1.588 3.992-3.599 3.992Zm13.29 0c-1.976 0-3.6-1.79-3.6-3.992 0-2.203 1.573-4.009 3.6-4.009 2.026 0 3.63 1.806 3.596 4.009-.035 2.202-1.586 3.992-3.596 3.992Z"/></svg>
